packages/foundations/assets/icons/functional/images/editing/save.svg

<svg xmlns="http://www.w3.org/2000/svg" width="32" height="32" fill="none"><path fill="#1A1C1F" fill-rule="evenodd" d="M4.219 2.111c-.468.126-.913.395-1.313.795a3.1 3.1 0 0 0-.808 1.334C2.004 4.546 2 5.045 2 15.973c0 10.931.004 11.427.098 11.734.158.516.44.996.797 1.354.397.4.81.653 1.332.818l.386.121H16c10.904 0 11.4-.004 11.707-.098a3.3 3.3 0 0 0 1.354-.797c.412-.41.651-.798.814-1.318l.125-.4V17.333c0-9.671-.004-10.06-.098-10.24-.134-.253-4.705-4.834-4.953-4.963-.194-.101-.416-.103-10.32-.1-8.663.003-10.164.015-10.41.081m3.793 4.547.015 2.658.147.213a1.4 1.4 0 0 0 .373.342l.226.129 5.111.014c3.515.01 5.177-.003 5.323-.042.117-.032.305-.141.417-.243.389-.351.376-.244.376-3.137V4h4.079l1.961 1.96L28 7.919v19.264l-.124.235c-.068.13-.226.307-.351.395l-.227.16-1.648.016-1.649.015-.014-5.651-.014-5.651-.16-.227a1.3 1.3 0 0 0-.395-.351L23.183 16h-7.166c-6.348 0-7.19.009-7.365.083a.98.98 0 0 0-.551.53c-.094.203-.099.483-.1 5.803L8 28.004l-1.649-.015-1.649-.016-.227-.16a1.3 1.3 0 0 1-.351-.395L4 27.183V16.017c0-9.959.009-11.188.083-11.365a.98.98 0 0 1 .53-.551c.192-.089.372-.099 1.799-.1L7.997 4zM17.973 6v2h-7.946V4h7.946zm4 17.013V28H10.027v-9.973h11.946z"/></svg>

<svg width="32" height="32" viewBox="0 0 32 32" fill="none" xmlns="http://www.w3.org/2000/svg"><path d="M4.219 2.111 C 3.751 2.237,3.306 2.506,2.906 2.906 C 2.508 3.304,2.258 3.717,2.098 4.240 C 2.004 4.546,2.000 5.045,2.000 15.973 C 2.000 26.904,2.004 27.400,2.098 27.707 C 2.256 28.223,2.538 28.703,2.895 29.061 C 3.292 29.461,3.705 29.714,4.227 29.879 L 4.613 30.000 16.000 30.000 C 26.904 30.000,27.400 29.996,27.707 29.902 C 28.224 29.743,28.703 29.462,29.061 29.105 C 29.473 28.695,29.712 28.307,29.875 27.787 L 30.000 27.387 30.000 17.333 C 30.000 7.662,29.996 7.273,29.902 7.093 C 29.768 6.840,25.197 2.259,24.949 2.130 C 24.755 2.029,24.533 2.027,14.629 2.030 C 5.966 2.033,4.465 2.045,4.219 2.111 M8.012 6.658 L 8.027 9.316 8.174 9.529 C 8.255 9.645,8.423 9.799,8.547 9.871 L 8.773 10.000 13.884 10.014 C 17.399 10.024,19.061 10.011,19.207 9.972 C 19.324 9.940,19.512 9.831,19.624 9.729 C 20.013 9.378,20.000 9.485,20.000 6.592 L 20.000 4.000 22.040 4.000 L 24.079 4.000 26.040 5.960 L 28.000 7.919 28.000 17.551 L 28.000 27.183 27.876 27.418 C 27.808 27.548,27.650 27.725,27.525 27.813 L 27.298 27.973 25.650 27.989 L 24.001 28.004 23.987 22.353 L 23.973 16.702 23.813 16.475 C 23.725 16.350,23.548 16.192,23.418 16.124 L 23.183 16.000 16.017 16.000 C 9.669 16.000,8.827 16.009,8.652 16.083 C 8.389 16.193,8.220 16.355,8.101 16.613 C 8.007 16.816,8.002 17.096,8.001 22.416 L 8.000 28.004 6.351 27.989 L 4.702 27.973 4.475 27.813 C 4.350 27.725,4.192 27.548,4.124 27.418 L 4.000 27.183 4.000 16.017 C 4.000 6.058,4.009 4.829,4.083 4.652 C 4.193 4.389,4.355 4.220,4.613 4.101 C 4.805 4.012,4.985 4.002,6.412 4.001 L 7.997 4.000 8.012 6.658 M17.973 6.000 L 17.973 8.000 14.000 8.000 L 10.027 8.000 10.027 6.000 L 10.027 4.000 14.000 4.000 L 17.973 4.000 17.973 6.000 M21.973 23.013 L 21.973 28.000 16.000 28.000 L 10.027 28.000 10.027 23.013 L 10.027 18.027 16.000 18.027 L 21.973 18.027 21.973 23.013 " fill="#1A1C1F" stroke="none" fill-rule="evenodd"></path></svg>
